!!!OTL: HERZ MEIN HERZ WARUM SO TRAURIG
!!!ARE: Europa, Mitteleuropa, Deutschland
!!!SCT: F1118
!!!YEM: Copyright 1995, estate of Helmut Schaffrath.
**kern
*ICvox
*Ivox
*M4/4
*k[b-]
*F:
{8a
8b-
=1
4.cc
8cc
8bn
8cc
8dd
8cc
=2
8cc
8bn
4b-
4r}
{8b-
8b-
=3
8b-
8g
8g
8e
4c
8d
8e
=4
2f
4r}
{8cc
8cc
=5
8ff
8ee
8dd
8cc
8b-
8a
8g
8f
=6
8e
8d
4d
4r}
{8b-
8dd
=7
4.cc
8cc
4cc
8dd
8ee
=8
4gg
4ff}
{8gg
8ff
8ee
8dd
=9
4.cc
8cc
4.cc
8e
=10
2f
4r}
==
!!!AGN: Trost - Lied, Heimweh
!!!ONB: ESAC (Essen Associative Code) Database: FINK
!!!AMT: simple quadruple
!!!AIN: vox
!!!EED: Helmut Schaffrath
!!!EEV: 1.0
*-
